X:1
T:Lame Dermot
M:2/4
L:1/8
R:Air
N:"With expression"
B:P.W. Jouce - Old Irish Folk Music and Songs (1909, No. 760)
Z:AK/Fiddler's Companion
K:A
B/c/|dB B>A|F2 A/G/F/|E2 FA|A2 AB/c/|
dcB>A|F2 AG/F/|E2 FA|A3||
A|dcde|f2 a>f|ec d/c/B/A/|d2 ef/e/|
dc d/c/B/A/|F2 AG/F/|E2 FA|A3||

